images/5771796.svg

<?xml version="1.0" encoding="UTF-8"?>
<svg xmlns="http://www.w3.org/2000/svg" xmlns:xlink="http://www.w3.org/1999/xlink" width="300pt" height="300pt" viewBox="0 0 300 300" version="1.1">
<defs>
<g>
<symbol overflow="visible" id="glyph0-0">
<path style="stroke:none;" d="M 0.453125 1.59375 L 0.453125 -6.34375 L 4.953125 -6.34375 L 4.953125 1.59375 Z M 0.953125 1.09375 L 4.453125 1.09375 L 4.453125 -5.84375 L 0.953125 -5.84375 Z M 0.953125 1.09375 "/>
</symbol>
<symbol overflow="visible" id="glyph0-1">
<path style="stroke:none;" d="M 3.546875 -5.953125 C 2.898438 -5.953125 2.382812 -5.710938 2 -5.234375 C 1.625 -4.753906 1.4375 -4.101562 1.4375 -3.28125 C 1.4375 -2.445312 1.625 -1.789062 2 -1.3125 C 2.382812 -0.832031 2.898438 -0.59375 3.546875 -0.59375 C 4.191406 -0.59375 4.703125 -0.832031 5.078125 -1.3125 C 5.453125 -1.789062 5.640625 -2.445312 5.640625 -3.28125 C 5.640625 -4.101562 5.453125 -4.753906 5.078125 -5.234375 C 4.703125 -5.710938 4.191406 -5.953125 3.546875 -5.953125 Z M 3.546875 -6.6875 C 4.460938 -6.6875 5.195312 -6.375 5.75 -5.75 C 6.300781 -5.132812 6.578125 -4.3125 6.578125 -3.28125 C 6.578125 -2.238281 6.300781 -1.410156 5.75 -0.796875 C 5.195312 -0.179688 4.460938 0.125 3.546875 0.125 C 2.617188 0.125 1.878906 -0.179688 1.328125 -0.796875 C 0.773438 -1.410156 0.5 -2.238281 0.5 -3.28125 C 0.5 -4.3125 0.773438 -5.132812 1.328125 -5.75 C 1.878906 -6.375 2.617188 -6.6875 3.546875 -6.6875 Z M 3.546875 -6.6875 "/>
</symbol>
<symbol overflow="visible" id="glyph0-2">
<path style="stroke:none;" d="M 0.890625 -6.5625 L 2.078125 -6.5625 L 4.984375 -1.078125 L 4.984375 -6.5625 L 5.84375 -6.5625 L 5.84375 0 L 4.65625 0 L 1.75 -5.484375 L 1.75 0 L 0.890625 0 Z M 0.890625 -6.5625 "/>
</symbol>
<symbol overflow="visible" id="glyph0-3">
<path style="stroke:none;" d="M 0.890625 -6.5625 L 1.765625 -6.5625 L 1.765625 -3.875 L 5 -3.875 L 5 -6.5625 L 5.890625 -6.5625 L 5.890625 0 L 5 0 L 5 -3.125 L 1.765625 -3.125 L 1.765625 0 L 0.890625 0 Z M 0.890625 -6.5625 "/>
</symbol>
</g>
</defs>
<g id="surface30153">
<rect x="0" y="0" width="300" height="300" style="fill:rgb(100%,100%,100%);fill-opacity:1;stroke:none;"/>
<path style="fill:none;stroke-width:1.2;stroke-linecap:butt;stroke-linejoin:miter;stroke:rgb(0%,0%,0%);stroke-opacity:1;stroke-miterlimit:10;" d="M 143.613281 72.34375 L 143.191406 92.710938 "/>
<path style="fill:none;stroke-width:1.2;stroke-linecap:butt;stroke-linejoin:miter;stroke:rgb(0%,0%,0%);stroke-opacity:1;stroke-miterlimit:10;" d="M 143.191406 92.710938 L 160.617188 103.261719 "/>
<path style="fill:none;stroke-width:1.2;stroke-linecap:butt;stroke-linejoin:miter;stroke:rgb(0%,0%,0%);stroke-opacity:1;stroke-miterlimit:10;" d="M 160.617188 103.261719 L 160.191406 123.625 "/>
<path style="fill:none;stroke-width:1.2;stroke-linecap:butt;stroke-linejoin:miter;stroke:rgb(0%,0%,0%);stroke-opacity:1;stroke-miterlimit:10;" d="M 160.191406 123.625 L 177.621094 134.175781 "/>
<path style="fill:none;stroke-width:1.2;stroke-linecap:butt;stroke-linejoin:miter;stroke:rgb(0%,0%,0%);stroke-opacity:1;stroke-miterlimit:10;" d="M 159.453125 128.78125 L 173.394531 137.222656 "/>
<path style="fill:none;stroke-width:1.2;stroke-linecap:butt;stroke-linejoin:miter;stroke:rgb(0%,0%,0%);stroke-opacity:1;stroke-miterlimit:10;" d="M 177.621094 134.175781 L 195.46875 124.359375 "/>
<path style="fill:none;stroke-width:1.2;stroke-linecap:butt;stroke-linejoin:miter;stroke:rgb(0%,0%,0%);stroke-opacity:1;stroke-miterlimit:10;" d="M 177.621094 134.175781 L 177.195312 154.542969 "/>
<path style="fill:none;stroke-width:1.2;stroke-linecap:butt;stroke-linejoin:miter;stroke:rgb(0%,0%,0%);stroke-opacity:1;stroke-miterlimit:10;" d="M 195.46875 124.359375 L 195.890625 103.992188 "/>
<path style="fill:none;stroke-width:1.2;stroke-linecap:butt;stroke-linejoin:miter;stroke:rgb(0%,0%,0%);stroke-opacity:1;stroke-miterlimit:10;" d="M 195.890625 103.992188 L 213.738281 94.175781 "/>
<path style="fill:none;stroke-width:1.2;stroke-linecap:butt;stroke-linejoin:miter;stroke:rgb(0%,0%,0%);stroke-opacity:1;stroke-miterlimit:10;" d="M 177.195312 154.542969 L 194.621094 165.089844 "/>
<path style="fill:none;stroke-width:1.2;stroke-linecap:butt;stroke-linejoin:miter;stroke:rgb(0%,0%,0%);stroke-opacity:1;stroke-miterlimit:10;" d="M 177.195312 154.542969 L 168.273438 159.449219 "/>
<path style="fill:none;stroke-width:1.2;stroke-linecap:butt;stroke-linejoin:miter;stroke:rgb(0%,0%,100%);stroke-opacity:1;stroke-miterlimit:10;" d="M 168.273438 159.449219 L 159.347656 164.359375 "/>
<path style="fill:none;stroke-width:1.2;stroke-linecap:butt;stroke-linejoin:miter;stroke:rgb(0%,0%,0%);stroke-opacity:1;stroke-miterlimit:10;" d="M 194.621094 165.089844 L 194.199219 185.457031 "/>
<path style="fill:none;stroke-width:1.2;stroke-linecap:butt;stroke-linejoin:miter;stroke:rgb(0%,0%,0%);stroke-opacity:1;stroke-miterlimit:10;" d="M 199.371094 167.226562 L 199.035156 183.519531 "/>
<path style="fill:none;stroke-width:1.2;stroke-linecap:butt;stroke-linejoin:miter;stroke:rgb(0%,0%,0%);stroke-opacity:1;stroke-miterlimit:10;" d="M 212.472656 155.273438 L 194.621094 165.089844 "/>
<path style="fill:none;stroke-width:1.2;stroke-linecap:butt;stroke-linejoin:miter;stroke:rgb(0%,0%,0%);stroke-opacity:1;stroke-miterlimit:10;" d="M 194.199219 185.457031 L 211.625 196.007812 "/>
<path style="fill:none;stroke-width:1.2;stroke-linecap:butt;stroke-linejoin:miter;stroke:rgb(0%,0%,0%);stroke-opacity:1;stroke-miterlimit:10;" d="M 211.625 196.007812 L 229.476562 186.191406 "/>
<path style="fill:none;stroke-width:1.2;stroke-linecap:butt;stroke-linejoin:miter;stroke:rgb(0%,0%,0%);stroke-opacity:1;stroke-miterlimit:10;" d="M 211.101562 190.824219 L 225.378906 182.972656 "/>
<path style="fill:none;stroke-width:1.2;stroke-linecap:butt;stroke-linejoin:miter;stroke:rgb(0%,0%,0%);stroke-opacity:1;stroke-miterlimit:10;" d="M 229.476562 186.191406 L 229.898438 165.824219 "/>
<path style="fill:none;stroke-width:1.2;stroke-linecap:butt;stroke-linejoin:miter;stroke:rgb(0%,0%,0%);stroke-opacity:1;stroke-miterlimit:10;" d="M 229.476562 186.191406 L 246.902344 196.738281 "/>
<path style="fill:none;stroke-width:1.2;stroke-linecap:butt;stroke-linejoin:miter;stroke:rgb(0%,0%,0%);stroke-opacity:1;stroke-miterlimit:10;" d="M 229.898438 165.824219 L 212.472656 155.273438 "/>
<path style="fill:none;stroke-width:1.2;stroke-linecap:butt;stroke-linejoin:miter;stroke:rgb(0%,0%,0%);stroke-opacity:1;stroke-miterlimit:10;" d="M 225.671875 168.871094 L 211.730469 160.429688 "/>
<path style="fill:none;stroke-width:1.2;stroke-linecap:butt;stroke-linejoin:miter;stroke:rgb(0%,0%,0%);stroke-opacity:1;stroke-miterlimit:10;" d="M 248.054688 198.839844 L 256.980469 193.929688 "/>
<path style="fill:none;stroke-width:1.2;stroke-linecap:butt;stroke-linejoin:miter;stroke:rgb(100%,0%,0%);stroke-opacity:1;stroke-miterlimit:10;" d="M 256.980469 193.929688 L 265.90625 189.023438 "/>
<path style="fill:none;stroke-width:1.2;stroke-linecap:butt;stroke-linejoin:miter;stroke:rgb(0%,0%,0%);stroke-opacity:1;stroke-miterlimit:10;" d="M 245.746094 194.640625 L 254.671875 189.730469 "/>
<path style="fill:none;stroke-width:1.2;stroke-linecap:butt;stroke-linejoin:miter;stroke:rgb(100%,0%,0%);stroke-opacity:1;stroke-miterlimit:10;" d="M 254.671875 189.730469 L 263.59375 184.824219 "/>
<path style="fill:none;stroke-width:1.2;stroke-linecap:butt;stroke-linejoin:miter;stroke:rgb(0%,0%,0%);stroke-opacity:1;stroke-miterlimit:10;" d="M 246.902344 196.738281 L 246.691406 206.921875 "/>
<path style="fill:none;stroke-width:1.2;stroke-linecap:butt;stroke-linejoin:miter;stroke:rgb(100%,0%,0%);stroke-opacity:1;stroke-miterlimit:10;" d="M 246.691406 206.921875 L 246.476562 217.105469 "/>
<path style=" stroke:none;fill-rule:nonzero;fill:rgb(100%,100%,100%);fill-opacity:1;" d="M 260.75 181.421875 L 268.75 181.421875 L 268.75 192.421875 L 260.75 192.421875 Z M 260.75 181.421875 "/>
<g style="fill:rgb(100%,0%,0%);fill-opacity:1;">
  <use xlink:href="#glyph0-1" x="260.75" y="190.084961"/>
</g>
<path style="fill:none;stroke-width:1.2;stroke-linecap:butt;stroke-linejoin:miter;stroke:rgb(100%,0%,0%);stroke-opacity:1;stroke-miterlimit:10;" d="M 246.476562 217.105469 L 255.191406 222.378906 "/>
<path style="fill:none;stroke-width:1.2;stroke-linecap:butt;stroke-linejoin:miter;stroke:rgb(0%,0%,0%);stroke-opacity:1;stroke-miterlimit:10;" d="M 255.191406 222.378906 L 263.902344 227.65625 "/>
<path style=" stroke:none;fill-rule:nonzero;fill:rgb(100%,100%,100%);fill-opacity:1;" d="M 242.476562 211.605469 L 250.476562 211.605469 L 250.476562 222.605469 L 242.476562 222.605469 Z M 242.476562 211.605469 "/>
<g style="fill:rgb(100%,0%,0%);fill-opacity:1;">
  <use xlink:href="#glyph0-1" x="242.476562" y="220.268555"/>
</g>
<path style="fill:none;stroke-width:1.2;stroke-linecap:butt;stroke-linejoin:miter;stroke:rgb(0%,0%,100%);stroke-opacity:1;stroke-miterlimit:10;" d="M 159.347656 164.359375 L 150.632812 159.085938 "/>
<path style="fill:none;stroke-width:1.2;stroke-linecap:butt;stroke-linejoin:miter;stroke:rgb(0%,0%,0%);stroke-opacity:1;stroke-miterlimit:10;" d="M 150.632812 159.085938 L 141.921875 153.808594 "/>
<path style=" stroke:none;fill-rule:nonzero;fill:rgb(100%,100%,100%);fill-opacity:1;" d="M 152.347656 158.859375 L 166.347656 158.859375 L 166.347656 169.859375 L 152.347656 169.859375 Z M 152.347656 158.859375 "/>
<g style="fill:rgb(0%,0%,100%);fill-opacity:1;">
  <use xlink:href="#glyph0-2" x="152.347656" y="167.522461"/>
  <use xlink:href="#glyph0-3" x="159.325195" y="167.522461"/>
</g>
<path style="fill:none;stroke-width:1.2;stroke-linecap:butt;stroke-linejoin:miter;stroke:rgb(0%,0%,0%);stroke-opacity:1;stroke-miterlimit:10;" d="M 144.316406 153.859375 L 144.527344 143.675781 "/>
<path style="fill:none;stroke-width:1.2;stroke-linecap:butt;stroke-linejoin:miter;stroke:rgb(100%,0%,0%);stroke-opacity:1;stroke-miterlimit:10;" d="M 144.527344 143.675781 L 144.738281 133.492188 "/>
<path style="fill:none;stroke-width:1.2;stroke-linecap:butt;stroke-linejoin:miter;stroke:rgb(0%,0%,0%);stroke-opacity:1;stroke-miterlimit:10;" d="M 139.523438 153.761719 L 139.738281 143.578125 "/>
<path style="fill:none;stroke-width:1.2;stroke-linecap:butt;stroke-linejoin:miter;stroke:rgb(100%,0%,0%);stroke-opacity:1;stroke-miterlimit:10;" d="M 139.738281 143.578125 L 139.949219 133.394531 "/>
<path style="fill:none;stroke-width:1.2;stroke-linecap:butt;stroke-linejoin:miter;stroke:rgb(0%,0%,0%);stroke-opacity:1;stroke-miterlimit:10;" d="M 141.921875 153.808594 L 124.070312 163.625 "/>
<path style=" stroke:none;fill-rule:nonzero;fill:rgb(100%,100%,100%);fill-opacity:1;" d="M 138.34375 127.945312 L 146.34375 127.945312 L 146.34375 138.945312 L 138.34375 138.945312 Z M 138.34375 127.945312 "/>
<g style="fill:rgb(100%,0%,0%);fill-opacity:1;">
  <use xlink:href="#glyph0-1" x="138.34375" y="136.608398"/>
</g>
<path style="fill:none;stroke-width:1.2;stroke-linecap:butt;stroke-linejoin:miter;stroke:rgb(0%,0%,0%);stroke-opacity:1;stroke-miterlimit:10;" d="M 124.070312 163.625 L 106.644531 153.078125 "/>
<path style="fill:none;stroke-width:1.2;stroke-linecap:butt;stroke-linejoin:miter;stroke:rgb(0%,0%,0%);stroke-opacity:1;stroke-miterlimit:10;" d="M 119.847656 166.671875 L 105.90625 158.234375 "/>
<path style="fill:none;stroke-width:1.2;stroke-linecap:butt;stroke-linejoin:miter;stroke:rgb(0%,0%,0%);stroke-opacity:1;stroke-miterlimit:10;" d="M 123.648438 183.992188 L 124.070312 163.625 "/>
<path style="fill:none;stroke-width:1.2;stroke-linecap:butt;stroke-linejoin:miter;stroke:rgb(0%,0%,0%);stroke-opacity:1;stroke-miterlimit:10;" d="M 106.644531 153.078125 L 88.796875 162.894531 "/>
<path style="fill:none;stroke-width:1.2;stroke-linecap:butt;stroke-linejoin:miter;stroke:rgb(0%,0%,0%);stroke-opacity:1;stroke-miterlimit:10;" d="M 88.796875 162.894531 L 88.375 183.261719 "/>
<path style="fill:none;stroke-width:1.2;stroke-linecap:butt;stroke-linejoin:miter;stroke:rgb(0%,0%,0%);stroke-opacity:1;stroke-miterlimit:10;" d="M 93.546875 165.03125 L 93.207031 181.324219 "/>
<path style="fill:none;stroke-width:1.2;stroke-linecap:butt;stroke-linejoin:miter;stroke:rgb(0%,0%,0%);stroke-opacity:1;stroke-miterlimit:10;" d="M 88.375 183.261719 L 105.800781 193.808594 "/>
<path style="fill:none;stroke-width:1.2;stroke-linecap:butt;stroke-linejoin:miter;stroke:rgb(0%,0%,0%);stroke-opacity:1;stroke-miterlimit:10;" d="M 88.375 183.261719 L 70.523438 193.078125 "/>
<path style="fill:none;stroke-width:1.2;stroke-linecap:butt;stroke-linejoin:miter;stroke:rgb(0%,0%,0%);stroke-opacity:1;stroke-miterlimit:10;" d="M 105.800781 193.808594 L 123.648438 183.992188 "/>
<path style="fill:none;stroke-width:1.2;stroke-linecap:butt;stroke-linejoin:miter;stroke:rgb(0%,0%,0%);stroke-opacity:1;stroke-miterlimit:10;" d="M 105.273438 188.628906 L 119.554688 180.773438 "/>
<path style="fill:none;stroke-width:1.2;stroke-linecap:butt;stroke-linejoin:miter;stroke:rgb(0%,0%,0%);stroke-opacity:1;stroke-miterlimit:10;" d="M 68.128906 193.027344 L 67.917969 203.210938 "/>
<path style="fill:none;stroke-width:1.2;stroke-linecap:butt;stroke-linejoin:miter;stroke:rgb(100%,0%,0%);stroke-opacity:1;stroke-miterlimit:10;" d="M 67.917969 203.210938 L 67.707031 213.394531 "/>
<path style="fill:none;stroke-width:1.2;stroke-linecap:butt;stroke-linejoin:miter;stroke:rgb(0%,0%,0%);stroke-opacity:1;stroke-miterlimit:10;" d="M 72.921875 193.128906 L 72.710938 203.308594 "/>
<path style="fill:none;stroke-width:1.2;stroke-linecap:butt;stroke-linejoin:miter;stroke:rgb(100%,0%,0%);stroke-opacity:1;stroke-miterlimit:10;" d="M 72.710938 203.308594 L 72.5 213.492188 "/>
<path style="fill:none;stroke-width:1.2;stroke-linecap:butt;stroke-linejoin:miter;stroke:rgb(0%,0%,0%);stroke-opacity:1;stroke-miterlimit:10;" d="M 70.523438 193.078125 L 61.8125 187.800781 "/>
<path style="fill:none;stroke-width:1.2;stroke-linecap:butt;stroke-linejoin:miter;stroke:rgb(100%,0%,0%);stroke-opacity:1;stroke-miterlimit:10;" d="M 61.8125 187.800781 L 53.097656 182.527344 "/>
<path style=" stroke:none;fill-rule:nonzero;fill:rgb(100%,100%,100%);fill-opacity:1;" d="M 66.101562 207.945312 L 74.101562 207.945312 L 74.101562 218.945312 L 66.101562 218.945312 Z M 66.101562 207.945312 "/>
<g style="fill:rgb(100%,0%,0%);fill-opacity:1;">
  <use xlink:href="#glyph0-1" x="66.101562" y="216.608398"/>
</g>
<path style="fill:none;stroke-width:1.2;stroke-linecap:butt;stroke-linejoin:miter;stroke:rgb(100%,0%,0%);stroke-opacity:1;stroke-miterlimit:10;" d="M 53.097656 182.527344 L 44.175781 187.4375 "/>
<path style="fill:none;stroke-width:1.2;stroke-linecap:butt;stroke-linejoin:miter;stroke:rgb(0%,0%,0%);stroke-opacity:1;stroke-miterlimit:10;" d="M 44.175781 187.4375 L 35.25 192.34375 "/>
<path style=" stroke:none;fill-rule:nonzero;fill:rgb(100%,100%,100%);fill-opacity:1;" d="M 49.097656 177.027344 L 57.097656 177.027344 L 57.097656 188.027344 L 49.097656 188.027344 Z M 49.097656 177.027344 "/>
<g style="fill:rgb(100%,0%,0%);fill-opacity:1;">
  <use xlink:href="#glyph0-1" x="49.097656" y="185.69043"/>
</g>
</g>
</svg>

<svg xmlns="http://www.w3.org/2000/svg" xmlns:xlink="http://www.w3.org/1999/xlink" width="300pt" height="300pt" viewBox="0 0 300 300"><defs><symbol overflow="visible"><path d="M.453 1.594v-7.938h4.5v7.938zm.5-.5h3.5v-6.938h-3.5zm0 0"/></symbol><symbol overflow="visible" id="a"><path d="M3.547-5.953c-.65 0-1.164.242-1.547.72-.375.48-.563 1.13-.563 1.952 0 .835.188 1.49.563 1.967.383.48.898.72 1.547.72.644 0 1.156-.24 1.53-.72.376-.476.564-1.132.564-1.968 0-.822-.187-1.474-.562-1.954-.375-.477-.887-.72-1.53-.72zm0-.734c.914 0 1.648.312 2.203.937.55.617.828 1.438.828 2.47 0 1.042-.277 1.87-.828 2.483-.555.617-1.29.922-2.203.922-.93 0-1.668-.305-2.22-.922C.774-1.41.5-2.237.5-3.28c0-1.033.273-1.853.828-2.47.55-.625 1.29-.938 2.22-.938zm0 0"/></symbol><symbol overflow="visible" id="b"><path d="M.89-6.563H2.08l2.906 5.485v-5.484h.86V0H4.656L1.75-5.484V0H.89zm0 0"/></symbol><symbol overflow="visible" id="c"><path d="M.89-6.563h.876v2.688H5v-2.688h.89V0H5v-3.125H1.766V0H.89zm0 0"/></symbol></defs><g><path fill="#fff" d="M0 0h300v300H0z"/><path d="M143.613 72.344l-.422 20.367M143.19 92.71l17.427 10.552M160.617 103.262l-.426 20.363M160.19 123.625l17.43 10.55M159.453 128.78l13.942 8.443M177.62 134.176l17.85-9.817M177.62 134.176l-.425 20.367M195.47 124.36l.42-20.368M195.89 103.992l17.848-9.816M177.195 154.543l17.426 10.547M177.195 154.543l-8.922 4.906" stroke-width="1.2" stroke="#000" stroke-miterlimit="10" fill="none"/><path d="M168.273 159.45l-8.925 4.91" stroke-width="1.2" stroke="#00f" stroke-miterlimit="10" fill="none"/><path d="M194.62 165.09l-.42 20.367M199.37 167.227l-.335 16.293M212.473 155.273l-17.852 9.817M194.2 185.457l17.425 10.55M211.625 196.008l17.852-9.817M211.102 190.824l14.277-7.85M229.477 186.19l.42-20.366M229.477 186.19l17.425 10.548M229.898 165.824l-17.425-10.55M225.672 168.87l-13.942-8.44M248.055 198.84l8.925-4.91" stroke-width="1.2" stroke="#000" stroke-miterlimit="10" fill="none"/><path d="M256.98 193.93l8.926-4.907" stroke-width="1.2" stroke="#f00" stroke-miterlimit="10" fill="none"/><path d="M245.746 194.64l8.926-4.91" stroke-width="1.2" stroke="#000" stroke-miterlimit="10" fill="none"/><path d="M254.672 189.73l8.922-4.906" stroke-width="1.2" stroke="#f00" stroke-miterlimit="10" fill="none"/><path d="M246.902 196.738l-.21 10.184" stroke-width="1.2" stroke="#000" stroke-miterlimit="10" fill="none"/><path d="M246.69 206.922l-.213 10.183" stroke-width="1.2" stroke="#f00" stroke-miterlimit="10" fill="none"/><path d="M260.75 181.422h8v11h-8zm0 0" fill="#fff"/><use xlink:href="#a" x="260.75" y="190.085" fill="#f00"/><path d="M246.477 217.105l8.714 5.274" stroke-width="1.2" stroke="#f00" stroke-miterlimit="10" fill="none"/><path d="M255.19 222.38l8.712 5.276" stroke-width="1.2" stroke="#000" stroke-miterlimit="10" fill="none"/><path d="M242.477 211.605h8v11h-8zm0 0" fill="#fff"/><use xlink:href="#a" x="242.477" y="220.269" fill="#f00"/><path d="M159.348 164.36l-8.715-5.274" stroke-width="1.2" stroke="#00f" stroke-miterlimit="10" fill="none"/><path d="M150.633 159.086l-8.71-5.277" stroke-width="1.2" stroke="#000" stroke-miterlimit="10" fill="none"/><path d="M152.348 158.86h14v11h-14zm0 0" fill="#fff"/><g fill="#00f"><use xlink:href="#b" x="152.348" y="167.522"/><use xlink:href="#c" x="159.325" y="167.522"/></g><path d="M144.316 153.86l.21-10.184" stroke-width="1.2" stroke="#000" stroke-miterlimit="10" fill="none"/><path d="M144.527 143.676l.21-10.184" stroke-width="1.2" stroke="#f00" stroke-miterlimit="10" fill="none"/><path d="M139.523 153.762l.215-10.184" stroke-width="1.2" stroke="#000" stroke-miterlimit="10" fill="none"/><path d="M139.738 143.578l.21-10.183" stroke-width="1.2" stroke="#f00" stroke-miterlimit="10" fill="none"/><path d="M141.922 153.81l-17.852 9.815" stroke-width="1.2" stroke="#000" stroke-miterlimit="10" fill="none"/><path d="M138.344 127.945h8v11h-8zm0 0" fill="#fff"/><use xlink:href="#a" x="138.344" y="136.608" fill="#f00"/><path d="M124.07 163.625l-17.425-10.547M119.848 166.672l-13.942-8.438M123.648 183.992l.422-20.367M106.645 153.078l-17.848 9.817M88.797 162.895l-.422 20.367M93.547 165.03l-.34 16.294M88.375 183.262L105.8 193.81M88.375 183.262l-17.852 9.816M105.8 193.81l17.848-9.818M105.273 188.63l14.282-7.857M68.13 193.027l-.212 10.184" stroke-width="1.2" stroke="#000" stroke-miterlimit="10" fill="none"/><path d="M67.918 203.21l-.21 10.185" stroke-width="1.2" stroke="#f00" stroke-miterlimit="10" fill="none"/><path d="M72.922 193.13l-.21 10.18" stroke-width="1.2" stroke="#000" stroke-miterlimit="10" fill="none"/><path d="M72.71 203.31l-.21 10.182" stroke-width="1.2" stroke="#f00" stroke-miterlimit="10" fill="none"/><path d="M70.523 193.078l-8.71-5.277" stroke-width="1.2" stroke="#000" stroke-miterlimit="10" fill="none"/><path d="M61.813 187.8l-8.715-5.273" stroke-width="1.2" stroke="#f00" stroke-miterlimit="10" fill="none"/><path d="M66.102 207.945h8v11h-8zm0 0" fill="#fff"/><use xlink:href="#a" x="66.102" y="216.608" fill="#f00"/><path d="M53.098 182.527l-8.922 4.91" stroke-width="1.2" stroke="#f00" stroke-miterlimit="10" fill="none"/><path d="M44.176 187.438l-8.926 4.906" stroke-width="1.2" stroke="#000" stroke-miterlimit="10" fill="none"/><path d="M49.098 177.027h8v11h-8zm0 0" fill="#fff"/><use xlink:href="#a" x="49.098" y="185.69" fill="#f00"/></g></svg>
